X: 38034
T: Spider's Legs
R: reel
M: 4/4
K: Dminor
A,DFD EGGG|EGGE FEDC|A,DFD EGGG|AcGE FDDD:|
d3A BAGB|AGFA GECE|dA (3AAA BAGB|AGFE FD (3DDD|
d3A BAGB|AGFA GECB,|A,DFD EGGG|AcGE FDDD||

